static/fa/svgs/solid/tarp-droplet.svg

<svg xmlns="http://www.w3.org/2000/svg" viewBox="0 0 576 512"><!--! Font Awesome Free 6.1.2 by @fontawesome - https://fontawesome.com License - https://fontawesome.com/license/free (Icons: CC BY 4.0, Fonts: SIL OFL 1.1, Code: MIT License) Copyright 2022 Fonticons, Inc. --><path d="M224 100C224 75.95 257.7 29.93 276.2 6.49C282.3-1.226 293.7-1.226 299.8 6.49C318.3 29.93 352 75.95 352 100C352 133.1 323.3 160 288 160C252.7 160 224 133.1 224 100V100zM64 128H197.5C210.6 165.3 246.2 192 288 192C329.8 192 365.4 165.3 378.5 128H512C547.3 128 576 156.7 576 192V352H448C430.3 352 416 366.3 416 384V512H64C28.65 512 0 483.3 0 448V192C0 156.7 28.65 128 64 128V128zM96 256C113.7 256 128 241.7 128 224C128 206.3 113.7 192 96 192C78.33 192 64 206.3 64 224C64 241.7 78.33 256 96 256zM448 512V384H576L448 512z"/></svg>

<svg xmlns="http://www.w3.org/2000/svg" viewBox="0 0 576 512"><!--! Font Awesome Free 6.5.2 by @fontawesome - https://fontawesome.com License - https://fontawesome.com/license/free (Icons: CC BY 4.0, Fonts: SIL OFL 1.1, Code: MIT License) Copyright 2024 Fonticons, Inc. --><path d="M288 160c-35.3 0-64-26.9-64-60c0-24 33.7-70.1 52.2-93.5c6.1-7.7 17.5-7.7 23.6 0C318.3 29.9 352 76 352 100c0 33.1-28.7 60-64 60zM64 128H197.5c13.2 37.3 48.7 64 90.5 64s77.4-26.7 90.5-64H512c35.3 0 64 28.7 64 64V352H448c-17.7 0-32 14.3-32 32l0 128L64 512c-35.3 0-64-28.7-64-64V192c0-35.3 28.7-64 64-64zM448 512l0-128H576L448 512zM96 256a32 32 0 1 0 0-64 32 32 0 1 0 0 64z"/></svg>
